packages/core/src/svgs/tokens/branded/ARBI.svg

<svg width="24" height="24" viewBox="0 0 24 24" fill="none" xmlns="http://www.w3.org/2000/svg">
<path d="M13.4892 13.5231L12.5169 16.1733C12.4872 16.2483 12.4872 16.3318 12.5169 16.4067L14.1837 20.9738L16.1227 19.8625L13.8003 13.5231C13.7883 13.4917 13.7669 13.4646 13.7391 13.4456C13.7114 13.4265 13.6785 13.4163 13.6448 13.4163C13.6111 13.4163 13.5781 13.4265 13.5504 13.4456C13.5226 13.4646 13.5012 13.4917 13.4892 13.5231ZM15.4338 9.05612C15.4217 9.02468 15.4003 8.99764 15.3726 8.97857C15.3449 8.95948 15.3119 8.94928 15.2782 8.94928C15.2445 8.94928 15.2116 8.95948 15.1838 8.97857C15.1561 8.99764 15.1347 9.02468 15.1227 9.05612L14.1504 11.7063C14.1207 11.7813 14.1207 11.8648 14.1504 11.9397L16.8894 19.4181L18.823 18.3068L15.4338 9.05057V9.05612Z" fill="#12AAFF"/>
<path d="M11.9999 3.11676C12.0499 3.11676 12.0944 3.12787 12.1389 3.15565L19.6395 7.51711C19.6815 7.54135 19.7163 7.57615 19.7407 7.61806C19.7651 7.65997 19.778 7.70754 19.7783 7.75602V16.24C19.778 16.2885 19.7651 16.336 19.7407 16.3779C19.7163 16.4199 19.6815 16.4547 19.6395 16.4789L12.1389 20.8571C12.0965 20.881 12.0487 20.8934 11.9999 20.8934C11.9513 20.8934 11.9035 20.881 11.8611 20.8571L4.36044 16.4845C4.31847 16.4602 4.28355 16.4255 4.25918 16.3835C4.23482 16.3416 4.22184 16.294 4.22155 16.2455V7.75602C4.22155 7.656 4.27711 7.56711 4.36044 7.51711L11.8611 3.15565C11.9024 3.12848 11.9505 3.11311 11.9999 3.11121V3.11676ZM11.9999 2C11.7388 2 11.4721 2.07224 11.2388 2.20558L3.87152 6.44481C3.64077 6.57737 3.44896 6.76832 3.31535 6.99848C3.18174 7.22863 3.11104 7.4899 3.11035 7.75602V16.24C3.11035 16.7789 3.39927 17.2845 3.87152 17.5567L11.2388 21.7959C11.4702 21.9296 11.7327 22 11.9999 22C12.2672 22 12.5297 21.9296 12.7612 21.7959L20.1283 17.5567C20.3606 17.4246 20.5537 17.233 20.6875 17.0016C20.8212 16.7702 20.891 16.5073 20.8896 16.24V7.75602C20.8896 7.21708 20.6006 6.71149 20.1283 6.44481L12.7612 2.20558C12.5278 2.07224 12.261 2 11.9999 2Z" fill="#9DCCED"/>
<path d="M7.12744 19.4291L7.80528 17.579L9.16649 18.7069L7.89417 19.8737L7.12744 19.4291Z" fill="#213147"/>
<path d="M11.3835 7.00043H9.51113C9.44203 7.00148 9.37504 7.02396 9.31931 7.06477C9.26356 7.10558 9.22189 7.1627 9.20002 7.22822L5.19971 18.3013L7.12763 19.4291L11.5391 7.23378C11.578 7.12265 11.5002 7.00043 11.3779 7.00043H11.3835ZM14.6504 7.00043H12.7836C12.7152 7.00108 12.6487 7.02275 12.5931 7.0625C12.5374 7.10226 12.4953 7.15817 12.4725 7.22267L7.89436 19.857L9.82784 20.9848L14.806 7.22822C14.816 7.20291 14.8196 7.17553 14.8166 7.14849C14.8135 7.12146 14.8039 7.09557 14.7886 7.0731C14.7732 7.05064 14.7526 7.03227 14.7286 7.01959C14.7045 7.00692 14.6777 7.00034 14.6504 7.00043Z" fill="white"/>
</svg>

<svg xmlns="http://www.w3.org/2000/svg" width="24" height="24" fill="none" viewBox="0 0 24 24">
    <path fill="#12AAFF" d="m13.49 13.523-.973 2.65a.32.32 0 0 0 0 .234l1.667 4.567 1.939-1.111-2.323-6.34a.17.17 0 0 0-.155-.107.17.17 0 0 0-.156.107m1.944-4.467a.167.167 0 0 0-.311 0l-.973 2.65a.32.32 0 0 0 0 .234l2.74 7.478 1.933-1.111-3.39-9.256z"/>
    <path fill="#9DCCED" d="M12 3.117c.05 0 .094.01.139.039l7.5 4.361a.28.28 0 0 1 .14.239v8.484a.28.28 0 0 1-.14.239l-7.5 4.378a.28.28 0 0 1-.278 0l-7.5-4.372a.28.28 0 0 1-.14-.24V7.756c0-.1.056-.189.14-.239l7.5-4.361A.3.3 0 0 1 12 3.11zM12 2a1.55 1.55 0 0 0-.761.206L3.872 6.445a1.52 1.52 0 0 0-.762 1.311v8.484c0 .539.29 1.045.762 1.317l7.367 4.239a1.52 1.52 0 0 0 1.522 0l7.367-4.24a1.5 1.5 0 0 0 .762-1.316V7.756c0-.539-.29-1.045-.762-1.311l-7.367-4.24A1.55 1.55 0 0 0 12 2"/>
    <path fill="#213147" d="m7.127 19.43.678-1.851 1.361 1.128-1.272 1.167z"/>
    <path fill="#fff" d="M11.384 7H9.51a.33.33 0 0 0-.311.228l-4 11.073 1.928 1.128 4.411-12.195a.174.174 0 0 0-.16-.234zm3.266 0h-1.866a.33.33 0 0 0-.312.223L7.895 19.857l1.934 1.128 4.978-13.757A.167.167 0 0 0 14.65 7"/>
</svg>
